!!!!SEGMENT: pl-wn--sd-xvi-qu-273--007_gomolka-mikolaj--w-tobie-ja-samym-panie-czlowiek-smutny.krn
!!!cenid: 15xx:212
!!!COM: Gomółka, Mikołaj
!!!COM-rismid: pe30013343
!!!CDT: ~1535->1591/04/30
!!!CNT: Polish
!!!GTL: Melodiae na psalterz polski
!!!OTL: VII. W Tobie ja samym, Panie, człowiek smutny,
!!!PDT: 1580
!!!AGN: Sacred
!!!SMS-siglum: PL-Wn
!!!SMS-shelfmark: SD XVI.Qu.273
!!!SMS-shelfwork: 007 G
!!!NIFC-rismid:
!!!ONB-nifc: Melodiae na psalterz polski
**kern	**text	**text	**kern	**text	**text	**kern	**text	**text	**kern	**text	**text
*part4	*verse[1]	*verse [2]	*part3	*verse[2]	*	*part2	*verse[1]	*verse[2]	*part1	*verse[1]	*verse[2]
*staff4	*	*	*staff3	*verse[1]	*	*staff2	*	*	*staff1	*	*
*clefF3	*	*	*clefC3	*	*	*clefC2	*	*	*clefG2	*	*
*k[b-]	*	*	*k[b-]	*	*	*k[b-]	*	*	*k[b-]	*	*
*g:	*	*	*g:	*	*	*g:	*	*	*g:	*	*
*M4/=2-	*	*	*M4/=2-	*	*	*M4/=2-	*	*	*M4/=2-	*	*
*met(C|)	*	*	*met(C|)	*	*	*met(C|)	*	*	*met(C|)	*	*
*>[A,A,B,B]	*>[A,A,B,B]	*>[A,A,B,B]	*>[A,A,B,B]	*>[A,A,B,B]	*>[A,A,B,B]	*>[A,A,B,B]	*>[A,A,B,B]	*>[A,A,B,B]	*>[A,A,B,B]	*>[A,A,B,B]	*>[A,A,B,B]
*>A	*>A	*>A	*>A	*>A	*>A	*>A	*>A	*>A	*>A	*>A	*>A
*xywh-9r:642,5415,5001,1301	*	*	*xywh-9r:611,4174,5042,1331	*	*	*xywh-9r:642,2883,5042,1291	*	*	*xywh-9r:662,1175,5012,1738	*	*
=1	=1	=1	=1	=1	=1	=1	=1	=1	=1	=1	=1
1G	W_To-	Nie-	1g	W_To-	Nie-	1b-	W_To-	Nie-	1dd	W_To-	Nie-
2B-	-bie	-prӡy-	2f	-bie	-prӡy-	2b-	-bie	-prӡy-	2dd	-bie	-prӡy-
2G	ja	-ja-	2g	ja	-ja-	2b-	ja	-ja-	2dd	ja	-ja-
=2-	=2-	=2-	=2-	=2-	=2-	=2-	=2-	=2-	=2-	=2-	=2-
1c	ʃà-	-ćiél	1e	ʃà-	-ćiél	2g	ʃà-	-ćiél	1ee	ʃà-	-ćiél
.	.	.	.	.	.	2cc	.	.	.	.	.
2B-	-mym,	mój,	2d	-mym,	mój,	2f	-mym,	mój,	2ff	-mym,	mój,
2BB-	Pà-	jà-	2f	Pà-	jà-	2b-	Pà-	jà-	2dd	Pà-	jà-
=3-	=3-	=3-	=3-	=3-	=3-	=3-	=3-	=3-	=3-	=3-	=3-
2F/	-nie,	-ťo	2f	-nie,	-ťo	2a	-nie,	-ťo	2cc#X	-nie,	-ťo
2D	czło-	lew	2f	czło-	lew	2a	czło-	lew	2dd	czło-	lew
2AA	-wieť	o-	2e	-wieť	o-	2.a	-wieť	o-	2dd	-wieť	o-
2AA	ʃmut-	-ťrut-	2e	ʃmut-	-ťrut-	.	.	.	2cc#X	ʃmut-	-ťrut-
.	.	.	.	.	.	4g	smut-	-ťrut-	.	.	.
=4-	=4-	=4-	=4-	=4-	=4-	=4-	=4-	=4-	=4-	=4-	=4-
2D	-ny,	-ny,	2d	-ny,	-ny,	2f	-ny,	-ny,	2dd	-ny,	-ny,
2G/	Nà-	Szu-	2B-	Nà-	Szu-	2c	Nà-	Szu-	2g	Nà-	Szu-
2E-	-dӡie-	-ťa	2e	-dӡie-	-ťa	2g	-dӡie-	-ťa	2b-/	-dӡie-	-ťa
2F/	-ję	mej	2c/	-ję	mej	2f	-ję	mej	2a	-ję	mej
=5-	=5-	=5-	=5-	=5-	=5-	=5-	=5-	=5-	=5-	=5-	=5-
2G	ťłà-	du-	2B-	ťłà-	du-	2d	ťłà-	du-	1g	ťłà-	du-
2C	.	.	2c/	.	.	2e-X/	.	.	.	.	.
2D	-de;	-ße,	2A	-de;	-ße,	2d	-de;	-ße,	2f	-de;	-ße,
2E	Ty	à-	2G	Ty	à-	2B-	Ty	à-	2g	Ty	à-
=6-	=6-	=6-	=6-	=6-	=6-	=6-	=6-	=6-	=6-	=6-	=6-
1C	ràcӡ	-by	2.c	ràcӡ	-by	2c	ràcӡ	-by	4e	ràcӡ	-by
!!LO:PB:g=original
*xywh-9v:1136,5438,5174,1419	*	*	*xywh-9v:1198,4111,5112,1429	*	*	*xywh-9v:1218,2794,5061,1471	*	*	*xywh-9v:1188,1210,5091,1769	*	*
.	.	.	.	.	.	.	.	.	4f	.	.
.	.	.	.	.	.	2G	.	.	4g	.	.
.	.	.	4B-	.	.	.	.	.	4e	.	.
2D	o	ja	2A	o	ja	2d	o	ja	2f	o	ja
2E	mnie	mógł	2G	mnie	mógł	2c	mnie	mógł	1g	mnie	mógł
=7-	=7-	=7-	=7-	=7-	=7-	=7-	=7-	=7-	=7-	=7-	=7-
1D	rà-	zgłà-	1A	rà-	zgłà-	2.d	rà-	zgłà-	.	.	.
.	.	.	.	.	.	.	.	.	2f	rà-	zgłà-
.	.	.	.	.	.	4c	.	.	.	.	.
2G	-dӡić.	-dӡić.	2G:|:	-dӡić.	-dzić.	2B-	-dӡić.	-dӡić.	2g	-dӡić.	-dӡić.
=:|!|:	=:|!|:	=:|!|:	=:|!|:	=:|!|:	=:|!|:	=:|!|:	=:|!|:	=:|!|:	=:|!|:	=:|!|:	=:|!|:
*>B	*>B	*>B	*>B	*>B	*>B	*>B	*>B	*>B	*>B	*>B	*>B
2B-	Ʒ_je-	.	2d	Ʒ_je-	.	2b-	Ʒ_je-	.	2dd	Ʒ_je-	.
=8-	=8-	=8-	=8-	=8-	=8-	=8-	=8-	=8-	=8-	=8-	=8-
2E//	-go	.	4e-X	-go	.	2g	-go	.	2cc	-go	.
.	.	.	4d	.	.	.	.	.	.	.	.
2G	paß-	.	4c	paß-	.	4d	pasß-	.	1b-	paß-	.
.	.	.	4B-	.	.	4e-/	.	.	.	.	.
1F	-cӡe-	.	1c	-cӡe-	.	4f\	-czӡ-	.	.	.	.
.	.	.	.	.	.	4e-/	.	.	.	.	.
.	.	.	.	.	.	4d	.	.	2a	-cӡe-	.
.	.	.	.	.	.	4c	.	.	.	.	.
=9-	=9-	=9-	=9-	=9-	.	=9-	=9-	.	=9-	=9-	=9-
2BB-	-ťi	.	2B-	-ťi	.	2d	-ťi	.	2b-/	-ťi	.
2D	jeʃ-	.	2F	jeʃ-	.	2d	jeʃ-	.	2a	jeʃ-	.
2G	-li	.	2G	-li	.	2d	-li	.	2b-/	-li	.
2F#X/	mię,	.	2A	mię,	.	2d	mię,	.	2a	mię,	.
=10-	=10-	=10-	=10-	=10-	=10-	=10-	=10-	=10-	=10-	=10-	=10-
2G	mój	.	2d	mój	.	2g	mój	.	2b-/	mój	.
2C	Bo-	.	2e-X	Bo-	.	4f\	Bo-	.	2cc	Bo-	.
.	.	.	.	.	.	4e-/	.	.	.	.	.
2D	(-że),	.	2d	(-że,)	.	2f	(-że,)	.	2a	(-że,)	.
*clefF=4	*	*	*	*	*	*	*	*	*	*	*
2BB-	Ty	.	2d	Ty	.	2f	Ty	.	2b-/	Ty	.
=11-	=11-	=11-	=11-	=11-	=11-	=11-	=11-	=11-	=11-	=11-	=11-
2BB-	ʃam	.	2d	ʃam	.	2f	ʃam	.	2b-/	ʃam	.
2FF	nie	.	2c/	nie	.	2f	nie	.	2a	nie	.
4GG	wyr-	.	1B-	wyr-	.	1d	wyr-	.	1g	wyr-	.
4AA	.	.	.	.	.	.	.	.	.	.	.
4BB-	.	.	.	.	.	.	.	.	.	.	.
4C	.	.	.	.	.	.	.	.	.	.	.
=12-	=12-	=12-	=12-	=12-	=12-	=12-	=12-	=12-	=12-	=12-	=12-
2D/	(-wiesz),	.	2A	(-wiesz),	.	2d	(-wiesz,)	.	2f#X	(-wiesz,)	.
2D/	niťt	.	2d	niťt	.	1f	niťt	.	1a	niťt	.
!!LO:PB:g=original
*xywh-10r:548,5354,1901,1321	*	*	*xywh-10r:588,4093,1819,1240	*	*	*xywh-10r:588,2751,2013,1311	*	*	*xywh-10r:649,1216,2328,1626	*	*
2F	mie	.	2c	mie	.	.	.	.	.	.	.
2C	nie	.	2e-	nie	.	2g	mie	.	2cc	mie	.
=13-	=13-	=13-	=13-	=13-	=13-	=13-	=13-	=13-	=13-	=13-	=13-
0E	wʃpo-	.	1B-	wʃpo-	.	1e-X	nie	.	2g	nie	.
.	.	.	.	.	.	.	.	.	1b-	wʃpo-	.
.	.	.	1G	.	.	2.B-	wʃpo-	.	.	.	.
.	.	.	.	.	.	.	.	.	4a	.	.
.	.	.	.	.	.	4c	.	.	4g	.	.
=14-	=14-	=14-	=14-	=14-	=14-	=14-	=14-	=14-	=14-	=14-	=14-
0D	-mo-	.	0A	-mo-	.	1d	.	.	2f#X	.	.
.	.	.	.	.	.	.	.	.	1g	-mo-	.
.	.	.	.	.	.	2.d	-mo-	.	.	.	.
.	.	.	.	.	.	.	.	.	2f#	.	.
.	.	.	.	.	.	4c	.	.	.	.	.
=15-	=15-	=15-	=15-	=15-	=15-	=15-	=15-	=15-	=15-	=15-	==15-
0GG;ll	-ӡe.	.	0G;ll	-ӡe.	.	0Bn;ll	-ӡe.	.	0g;l	-ӡe.	.
==	==	==	==	==	==	==	==	==	==	==	==
*-	*-	*-	*-	*-	*-	*-	*-	*-	*-	*-	*-
!!!system-decoration: s1,s2,s3,s4
!!!RDF**kern: l = terminal long
!!!ENC:Anna Matuszewska
!!!END:2020-02-04
!!!URL-scan: https://polona.pl/item/melodiae-na-psalterz-polski,Nzk3MTM4ODQ/32 Scan on Polona
!!!IIIF: https://polona.pl/iiif/item/Nzk3MTM4ODQ/manifest.json
